X: 1
T: Povrateno [G]
O: Greece
S: Seymour Shlien
M: 4/4
L: 1/8
%Q: 1/4=84
P: I+(ABC)3+AB last AB faster
K: G_A=B
"I"|: "intro"DG/G/ GG DD Gz | DG/G/ GG DD Gz :|
"A"|::: GG/G/ Gd d/c/d/c/ BA | GA/G/ FG AG Gz :::|
"B"|::: BA/B/ AG GA Bc | BA/B/  AG FG Gz :::|
"C"|::: "taksim"DG/G/ GG DD G2 | DG/G/ GG DD G2 :::|
